!!!Genre:	Freylekhs
!!!Mode:	Freygish
!!!Edition:	2001
!!!Listening/dance:	listening
!!!Free rhythm?:	No
!!!Secondary Modes:	26-37; 38-42
!!!:	*C:; *c:
!!!One_Mode:	no
!!!Orig_tonic: C
**kern
*I"P1
*clefG2
*k[b-e-a-]
*G:frey
*M2/4
*>A
=1
8gL
8ggJ
8bnL
8ccJ
=2
8ddL
16ddL
16ddJJ
8ddL
8ddJ
=3
8gL
8ggJ
8gL
8a-J
=4
8.bntL
16a-Jk
4g
=5
(16bnLL
16ddJ
8ccJ)
(16ccLL
16ddJ
8bJ)
=6
(16bnLL
16ddJ
8ccJ)
(16ccLL
16ddJ
8bJ)
=7
8ffL
8ee-
8dd
8ccJ
=8
16bnLL
16cc
16b
16ccJJ
4dd
=9:|!
(16bnLL
16cc)
(16a-
16bJJ)
4g
*>bM
*c:
=10!|:
*>B
8g
4gg
8gg
=11
8g
4gg
8gg
=12
8ggL
16ffL
16ggJJ
8ffL
16ee-L
16ffJJ
=13
8ee-L
16ddL
16ee-JJ
8ddL
8ccJ
*>eM
*>bM
*B-:
=14
8cc
4ff
8ff
=15
8cc
4ff
8ff
=16
8ffL
16ee-L
16ffJJ
8ee-L
16ddL
16ee-JJ
=17
8ddL
16ccL
16ddJJ
8ccL
8bnJ
*>eM
*G:frey
=18:|!
*>C
16bnLL
16ccJ
8ddJ
16ee-LL
16ddJ
8ccJ
=19
16ddLL
16ee-J
8ffJ
16ee-LL
16ddJ
8ccJ
=20
16bnLL
16ccJ
8ddJ
16ccLL
16bJ
8a-J
=21
16gLL
16a-J
8bnJ
16a-LL
16gJ
8fJ
=22
12bn'L
12cc'
12dd'J
12ee-'L
12dd'
12cc'J
=23
12dd'L
12ee-'
12ff'J
12ee-'L
12dd'
12cc'J
=24
12bn'L
12cc'
12dd'J
12cc'L
12b'
12a-'J
=25
2g
*>bM
*C:
=26||
*>D
*k[]
(8qff#X/
2gg)
=27
2ccc
=28
(8qff#X/
4gg)
(8qff#/
4gg)
=29
(8qff#X/
4gg)
(8qff#/
4gg)
=30
[4gg
16ggLL]
16ee
16cc
16eeJJ
=31
8ggL
8ffJ
4ee
=32
16ccLL
16ee
16cc
16eeJJ
8ccL
8eeJ
=33
2gg
=34
16ccLL
16eeJ
8ggJ
16ffLL
16eeJ
8ddJ
=35
8eeL
8ccJ
4gg
=36
8.ggL
16ddJk
16eeLL
16ff
16ee
16ddJJ
=37
2cc
*>eM
*>bM
*c:
=38!|:
*>E
*k[b-e-a-]
16gLL
16bn
16dd
16bJJ
16gLL
16b
16dd
16bJJ
=39
16gLL
16cc
16ee-
16ccJJ
16gLL
16cc
16ee-
16ccJJ
=40
8gL
8ff
8ee-
8ddJ
=41
(16ddLL
16gg)
16gg
16ggJJ
(16ddLL
16gg)
16gg
16ggJJ
=42:|!
2cc
*>eM
==
*-
